X:1
T:Rejoice, O Pure in Heart
T:Text: Edward H. Plumptre, 1865, alt. Tune: Arthur H. Messiter, 1883
T:SM with refrain MARION www.hymnary.org/text/rejoice_ye_pure_in_heart
T:Rejoice, O Pure in Heart
T:This hymn is in the public domain.  You may freely use this score for personal and congregational worship.  If you reproduce the score, please credit Hymnary.org as the source. 
T:This hymn is in the public domain.  You may freely use this score for personal and congregational worship.  If you reproduce the score, please credit Hymnary.org as the source. 
Z:This hymn is in the public domain.  You may freely use this score for personal and congregational worship.  If you reproduce the score, please credit Hymnary.org as the source.
%%score ( 1 2 ) ( 3 4 5 )
L:1/8
M:4/4
K:G
V:1 treble nm="SOPRANO ALTO" snm="S. A."
V:2 treble 
V:3 bass nm="TENOR BASS" snm="T. B."
V:4 bass 
V:5 bass 
V:1
"^1""^2""^3""^4""^5" G2 | d2 BA G2 A2 | B6 B2 | B2 GA B2 ^c2 | d6 | d2 | e2 dc B2 B2 | %7
w: Re-|joice, O * pure in|heart, re-|joice, give * thanks, and|sing;|your|fes- tal * ban- ner|
w: Bright|youth and * snow- crowned|age, both|men and * wom- en,|raise|on|high your _ free, ex-|
w: Still|lift your * stan- dard|high, still|chant- ing * as you|go,|from|youth to * age, by|
w: At|last the * march shall|end; the|wea- ried * ones shall|rest,|the|pil- grims _ reach their|
w: Praise|God, who * reigns on|high, the|Lord whom _ we a-|dore:|the|Fa- ther, * Son, and|
 BA ^GA B2 E2 | A2 B2 c2 B2 | A6 ||1"^Refrain" d2 | d6 d2 | d6 d2 | c2 BA B2 A2 | G6 x2 |] %15
w: wave _ on * high, the|cross of Christ your|King.|Re-|joice, re-|joice, re-|joice, give _ thanks, and|sing!|
w: ult- * ing * song, de-|clare God's won- drous|praise.||||||
w: night _ and * day, in|glad- ness and in|woe.||||||
w: home _ at * last, Je-|ru- sa- lem the|blest.||||||
w: Ho- * ly * Ghost, one|God for- ev- er-|more.||||||
V:2
 D2 | D2 F2 G2 D2 | D6 ^D2 | E2 EF G2 G2 | F6 | =F2 | E2 E2 E2 E2 | E2 ^D2 E2 E2 | E2 E2 D2 D2 | %9
 D6 ||1 D2 | D6 D2 | D6 G2 | G2 G2 G2 F2 | x6 x2 |] %15
V:3
 x2 | x8 | x8 | x8 | x6 | x2 | x8 | x8 | x8 | x6 ||1 x2 | x8 | x8 | x8 | G,,6 x2 |] %15
V:4
 B,2 | A,2 DC B,2 F,2 | G,6 A,2 | G,2 B,A, G,2 A,2 | A,6 | B,2 | C2 B,A, A,2 ^G,2 | %7
w: |||||||
 A,2 B,A, ^G,2 G,2 | A,2 =G,2 F,2 G,2 | F,6 ||1 z2 | z2 F,G, A,4 | z2 G,A, B,2 B,2 | C2 DE D2 C2 | %14
w: ||||re- * joice,|re- * joice, *||
 B,6 x2 |] %15
w: |
V:5
 G,2 | F,2 D,2 E,2 D,2 | G,6 F,2 | E,2 G,F, E,2 E,2 | D,6 | G,2 | C,2 C,2 E,2 E,2 | %7
 F,2 B,,2 E,2 =D,2 | C,2 B,,2 A,,2 B,,2 | D,6 ||1 x2 | x2 D,E, F,4 | x2 E,F, G,2 =F,2 | %13
 E,2 D,C, D,2 D,2 | G,6 x2 |] %15

